build/images/prev.svg

<svg width="12" height="22" viewBox="0 0 12 22" fill="none" xmlns="http://www.w3.org/2000/svg">
<rect width="11.4391" height="21.9713" fill="black" fill-opacity="0"/>
<rect width="11.4391" height="21.9713" fill="black" fill-opacity="0"/>
<path d="M10.1517 21.744C10.2988 21.8955 10.4828 21.9713 10.685 21.9713C10.8873 21.9713 11.0713 21.8955 11.2184 21.744C11.5126 21.441 11.5126 20.9485 11.2184 20.6455L1.83908 10.9857L11.2184 1.32586C11.5126 1.0228 11.5126 0.530342 11.2184 0.227289C10.9241 -0.0757631 10.446 -0.0757631 10.1517 0.227289L0.220689 10.4364C-0.0735632 10.7394 -0.0735632 11.2319 0.220689 11.5349L10.1517 21.744Z" fill="#F7B044"/>
</svg>

<svg width="12" height="22" viewBox="0 0 12 22" fill="none" xmlns="http://www.w3.org/2000/svg"><path d="M0 0h11.439v21.971H0z"/><path d="M0 0h11.439v21.971H0z"/><path d="M10.152 21.744a.726.726 0 0 0 .533.227.726.726 0 0 0 .533-.227.794.794 0 0 0 0-1.099l-9.379-9.66 9.38-9.66a.794.794 0 0 0 0-1.098.74.74 0 0 0-1.067 0L.22 10.437a.794.794 0 0 0 0 1.098l9.93 10.209z" fill="#F7B044"/></svg>
